src/images/single-assets/PHARAOH.svg

<svg width="32" height="32" viewBox="0 0 32 32" fill="none" xmlns="http://www.w3.org/2000/svg">
<circle cx="16" cy="16" r="15" fill="#0E0F10" stroke="#202022" stroke-width="2"/>
<path d="M15.0034 7.54545L15.2269 7.17543L15.3288 7H15.4419C15.4443 7.00024 15.4466 7.00024 15.4488 7C15.5952 7.00482 15.7416 7.00751 15.888 7.00807C16.0345 7.00751 16.1809 7.00482 16.3272 7C16.3295 7.00024 16.3318 7.00024 16.3342 7H16.4473L16.5492 7.17539L16.7727 7.54545L16.5795 12.6253L17.0302 13.21L16.4255 20.98H16.2617L16.2612 20.9947C16.2612 20.9982 16.259 21 16.2547 21H15.5214C15.5171 21 15.5149 20.9982 15.5149 20.9947L15.5143 20.98H15.3505L14.7458 13.21L15.1966 12.6253L15.0034 7.54545Z" fill="#CA2929"/>
<path d="M12.5734 10.36L13.4216 13.697C13.4218 13.6982 13.4215 13.6993 13.4209 13.7004L12.4073 14.7832C12.4067 14.7842 12.4065 14.7854 12.4066 14.7866L13.3547 20.9944C13.3547 20.9952 13.4906 20.9961 13.613 20.9968C13.7131 20.9974 13.8043 20.9979 13.8048 20.9984C13.8061 20.9994 13.8078 21 13.8095 21H14.4167C14.4176 21 14.4186 20.9998 14.4195 20.9995L14.4207 20.9989L14.4218 20.998C14.4224 20.9974 14.4229 20.9967 14.4232 20.9959L14.4236 20.9948L14.4236 20.9934L13.5607 8.85779C13.5606 8.85652 13.5601 8.85532 13.5592 8.85433C13.5583 8.85334 13.5571 8.85262 13.5557 8.85228C13.5543 8.85193 13.5529 8.85196 13.5515 8.85238C13.5502 8.85279 13.549 8.85356 13.5482 8.85459L12.5745 10.356C12.5736 10.3572 12.5732 10.3586 12.5734 10.36Z" fill="#CA2929"/>
<path d="M12.6304 20.9916L10.9182 12.9664C10.9179 12.9651 10.9171 12.9639 10.9161 12.9629C10.915 12.962 10.9137 12.9613 10.9122 12.961C10.9108 12.9607 10.9092 12.9608 10.9078 12.9613C10.9072 12.9615 10.9065 12.9618 10.9059 12.9622C10.9053 12.9626 10.9048 12.963 10.9043 12.9636L10.2528 13.9572C10.2521 13.958 10.2517 13.9589 10.2514 13.9599L10.2513 13.9611L10.2514 13.9628L10.9356 16.076L10.9358 16.0778C10.9358 16.0785 10.9357 16.0791 10.9354 16.0798L10.184 17.1192L10.1836 17.1211L10.1836 17.1223L10.1838 17.1232L11.3184 20.9946C11.3188 20.9961 11.3198 20.9975 11.3211 20.9985C11.3225 20.9995 11.3242 21 11.326 21H12.6228C12.6239 21 12.6251 20.9997 12.6261 20.9993C12.6271 20.9989 12.6281 20.9982 12.6288 20.9974C12.6295 20.9966 12.63 20.9957 12.6303 20.9947C12.6306 20.9937 12.6306 20.9926 12.6304 20.9916Z" fill="#CA2929"/>
<path d="M8.60516 18.3668L8.06944 17.4284C8.06944 17.4284 8.06832 17.4141 8.07369 17.4078L8.66429 16.511C8.66517 16.51 8.66634 16.5092 8.66766 16.5088C8.66842 16.5085 8.6692 16.5084 8.67 16.5083L8.67179 16.5084C8.67317 16.5086 8.67445 16.5091 8.6755 16.51C8.67654 16.5108 8.67731 16.5118 8.67772 16.513L10.3176 20.991C10.3179 20.992 10.318 20.9931 10.3178 20.9942L10.3176 20.9951L10.317 20.9965C10.3163 20.9973 10.3149 20.9987 10.3138 20.9992C10.313 20.9995 10.3113 21 10.3104 21H8.97784C8.97414 21 8.97053 20.999 8.96745 20.9971C8.96437 20.9952 8.96198 20.9925 8.96059 20.9894L8.04256 19.4998C8.03777 19.4888 8.03714 19.4767 8.04077 19.4656C8.06141 19.4011 8.17951 19.2044 8.30286 18.9989C8.44272 18.7659 8.58934 18.5216 8.6083 18.4462C8.61501 18.4195 8.60516 18.3668 8.60516 18.3668Z" fill="#CA2929"/>
<path d="M7.30056 20.0025L7.74652 20.9917C7.74682 20.992 7.74696 20.9924 7.74692 20.9927C7.74687 20.9931 7.74665 20.9935 7.74628 20.9938L7.74477 20.9945C7.74415 20.9947 7.74346 20.9948 7.74276 20.9948H7.29235C7.28416 20.9948 7.27413 20.9996 7.27413 20.9996C7.27413 20.9996 6.77397 20.9923 6.45351 20.9953C6.2764 20.997 6 21 6 21L6.88223 20.3215C6.88223 20.3215 6.88062 20.3185 6.88104 20.3169C6.88146 20.3153 6.88269 20.3139 6.88461 20.3126L7.2863 20.0017L7.28767 20.001L7.28974 20.0003L7.29202 20L7.29397 20C7.2954 20.0001 7.29676 20.0004 7.29791 20.0008C7.29906 20.0013 7.29997 20.0019 7.30056 20.0025Z" fill="#CA2929"/>
<path d="M18.3544 13.697L19.2027 10.36C19.2028 10.3586 19.2024 10.3572 19.2016 10.356L18.2279 8.85459C18.2271 8.85356 18.2259 8.85279 18.2245 8.85238C18.2232 8.85196 18.2217 8.85193 18.2204 8.85228C18.219 8.85262 18.2178 8.85334 18.2169 8.85433C18.216 8.85532 18.2155 8.85652 18.2154 8.85779L17.3524 20.9934C17.3524 20.9942 17.3525 20.9951 17.3528 20.9959L17.3535 20.9971L17.3543 20.998L17.3556 20.999L17.3566 20.9995C17.3575 20.9998 17.3584 21 17.3594 21H17.9665L17.9675 20.9999L17.9687 20.9997L17.9704 20.9989L17.9712 20.9984C17.9718 20.9979 18.063 20.9974 18.1631 20.9968C18.2855 20.9961 18.4213 20.9952 18.4214 20.9944L19.3694 14.7866C19.3695 14.7859 19.3695 14.7852 19.3693 14.7845L19.3688 14.7832L18.3551 13.7004C18.3545 13.6993 18.3543 13.6982 18.3544 13.697Z" fill="#CA2929"/>
<path d="M19.1457 20.9916L20.8579 12.9664C20.8582 12.9651 20.8589 12.9639 20.86 12.9629C20.861 12.962 20.8624 12.9613 20.8638 12.961C20.8653 12.9607 20.8668 12.9608 20.8682 12.9613C20.8696 12.9617 20.8709 12.9625 20.8718 12.9636L21.5233 13.9572C21.5239 13.958 21.5244 13.9589 21.5246 13.9599C21.5249 13.9608 21.5249 13.9618 21.5246 13.9628L20.8404 16.076C20.8401 16.0773 20.8402 16.0786 20.8407 16.0798L21.5921 17.1192C21.5926 17.1205 21.5926 17.1219 21.5923 17.1232L20.4577 20.9946C20.4573 20.9961 20.4563 20.9975 20.4549 20.9985C20.4535 20.9995 20.4518 21 20.4501 21H19.1533C19.1521 21 19.151 20.9997 19.15 20.9993C19.1489 20.9989 19.148 20.9982 19.1473 20.9974C19.1465 20.9966 19.146 20.9957 19.1458 20.9947C19.1455 20.9937 19.1455 20.9926 19.1457 20.9916Z" fill="#CA2929"/>
<path d="M23.1709 18.3668L23.7066 17.4284C23.7066 17.4284 23.7077 17.4141 23.7023 17.4078L23.1117 16.511C23.1109 16.51 23.1097 16.5092 23.1084 16.5088C23.107 16.5083 23.1056 16.5082 23.1042 16.5084C23.1029 16.5086 23.1016 16.5091 23.1005 16.51C23.0995 16.5108 23.0987 16.5118 23.0983 16.513L21.4584 20.991C21.4581 20.992 21.458 20.9931 21.4582 20.9942C21.4584 20.9953 21.4589 20.9963 21.4596 20.9971C21.4602 20.998 21.4612 20.9987 21.4622 20.9992C21.4633 20.9997 21.4644 21 21.4656 21H22.7982C22.8019 21 22.8055 20.999 22.8086 20.9971C22.8117 20.9952 22.814 20.9925 22.8154 20.9894L23.7335 19.4998C23.7383 19.4888 23.7389 19.4767 23.7353 19.4656C23.7146 19.4011 23.5965 19.2043 23.4732 18.9988C23.3333 18.7659 23.1867 18.5216 23.1677 18.4462C23.161 18.4195 23.1709 18.3668 23.1709 18.3668Z" fill="#CA2929"/>
<path d="M24.6994 20.0025L24.2535 20.9917C24.2532 20.992 24.253 20.9924 24.2531 20.9927L24.2537 20.9938C24.2541 20.9941 24.2546 20.9943 24.2552 20.9945C24.2558 20.9947 24.2565 20.9948 24.2572 20.9948H24.7077C24.7158 20.9948 24.7259 20.9996 24.7259 20.9996C24.7259 20.9996 25.226 20.9923 25.5465 20.9953C25.7236 20.997 26 21 26 21L25.1178 20.3215C25.1178 20.3215 25.1194 20.3185 25.119 20.3169C25.1185 20.3153 25.1173 20.3139 25.1154 20.3126L24.7137 20.0017C24.7131 20.0013 24.7124 20.001 24.7117 20.0007L24.7103 20.0003C24.7089 20.0001 24.7075 19.9999 24.706 20C24.7046 20.0001 24.7032 20.0004 24.7021 20.0008C24.7009 20.0013 24.7 20.0019 24.6994 20.0025Z" fill="#CA2929"/>
</svg>

<svg xmlns="http://www.w3.org/2000/svg" width="32" height="32" fill="none"><circle cx="16" cy="16" r="15" fill="#0E0F10" stroke="#202022" stroke-width="2"/><path fill="#CA2929" d="m15.003 7.545.224-.37.102-.175h.12000000000000001q.22.008.439.008A15 15 0 0 0 16.334 7h.113l.102.175.224.37-.194 5.08.451.585-.605 7.77h-.163v.015q0 .005-.007.005h-.734q-.006 0-.006-.005v-.015h-.165l-.604-7.77.45-.585zM12.573 10.36l.849 3.337-.001.003-1.014 1.083v.004l.948 6.207.258.003.192.001.005.002h.609l.002-.001v-.001l.002-.002v-.003l-.862-12.135q0-.002-.002-.004l-.003-.002h-.004l-.004.003-.973 1.501zM12.63 20.992l-1.712-8.026-.002-.003-.004-.002h-.004l-.004.003-.651.993-.002.003v.003l.685 2.113v.004l-.752 1.04v.003l1.134 3.872.003.003.005.002h1.2999999999999998l.003-.003.001-.002zM8.605 18.367l-.536-.939s0-.014.005-.02l.59-.897.004-.002h.004l.003.001q.002 0 .003.003l1.64 4.478v.004l-.001.002-.003.002-.004.001H8.978l-.01-.003-.007-.008-.918-1.49a.05.05 0 0 1-.002-.033c.02-.065.139-.262.262-.467.14-.233.286-.477.305-.553.007-.027-.003-.08-.003-.08M7.3 20.003l.447.989v.002h-.454L7.273 21s-.5-.008-.82-.005L6 21l.882-.678-.001-.005q0-.003.004-.004l.401-.311.002-.001h.002L7.292 20h.006zM18.354 13.697l.849-3.337-.001-.004-.974-1.501-.004-.003a.01.01 0 0 0-.007.002l-.002.004-.863 12.135v.003l.002.001v.001l.002.001.003.001h.609l.002-.001h.001c0-.001.092-.002.192-.002.122 0 .258-.002.258-.003l.948-6.207v-.003L18.355 13.7zM19.146 20.992l1.712-8.026q0 0 .002-.003l.004-.002h.004q.003 0 .004.003l.651.993.002.003v.003l-.685 2.113v.004l.752 1.04v.003l-1.134 3.872-.003.003-.005.002h-1.2999999999999998l-.003-.003-.001-.002zM23.17 18.367l.537-.939s0-.014-.005-.02l-.59-.897-.004-.002h-.004l-.003.001-.003.003-1.64 4.478v.003q0 .002.002.003l.002.002.004.001h1.332l.01-.003.007-.008.918-1.49a.05.05 0 0 0 .002-.033c-.02-.065-.139-.262-.262-.467-.14-.233-.286-.477-.305-.553a.3.3 0 0 1 .003-.08M24.7 20.003l-.447.989v.002h.454c.009 0 .019.006.019.006s.5-.008.82-.005L26 21l-.882-.678.001-.005-.004-.004-.401-.311-.002-.001h-.002L24.706 20h-.004z"/></svg>
